lib/logo_tmp/nrk-logo-nrk-sami-radio-with-bg.svg

<svg width="155" height="28" viewBox="0 0 155 28" fill="none" xmlns="http://www.w3.org/2000/svg">
<rect width="154.667" height="28" fill="#114F9D"/>
<path d="M6.66663 21.0001V7.00135H11.26V21.0001H6.66663ZM17.5094 9.22932L20.151 21.0001H15.124L11.9697 7.00135H14.7892C15.4357 6.99296 16.063 7.22087 16.5535 7.6422C17.0449 8.04586 17.3824 8.60623 17.5094 9.22932ZM20.8411 21.0001V7.00135H25.4345V21.0001H20.8411ZM28.9038 12.3249C28.4089 12.3297 27.9218 12.2002 27.4946 11.9502C27.073 11.7066 26.7229 11.3564 26.4793 10.9348C26.229 10.5075 26.0995 10.0203 26.1044 9.52512C26.0988 9.03295 26.2284 8.54869 26.4793 8.12525C26.7255 7.70824 27.0752 7.36186 27.4946 7.11969C27.922 6.87 28.4089 6.74052 28.9038 6.74503C29.3959 6.73973 29.8799 6.86933 30.3035 7.11969C30.7187 7.36398 31.0647 7.71007 31.309 8.12525C31.5596 8.54881 31.6892 9.03299 31.6838 9.52512C31.6884 10.0203 31.5589 10.5073 31.309 10.9348C31.0673 11.3545 30.7209 11.7044 30.3035 11.9502C29.8799 12.2011 29.3955 12.3307 28.9032 12.3249H28.9038ZM32.3935 21.0001V7.00135H36.9873V21.0001H32.3935ZM42.8027 14.6514C42.8156 14.6649 42.9141 14.8259 43.0983 15.1344C43.2826 15.4429 43.5224 15.8372 43.8179 16.3174C44.1136 16.7974 44.4257 17.3067 44.754 17.8454C45.0824 18.3841 45.3913 18.8935 45.6809 19.3735C45.9694 19.8535 46.298 20.3957 46.6666 21.0001H41.6198C41.3041 20.4875 41.0181 20.0241 40.7618 19.6101C40.5056 19.196 40.2331 18.7491 39.9444 18.2693C39.6551 17.79 39.369 17.3234 39.0862 16.8695C38.8034 16.4155 38.5604 16.018 38.3571 15.6766C38.153 15.3351 38.0116 15.1051 37.9329 14.9865C37.7379 14.6924 37.6225 14.3528 37.5981 14.0007C37.6176 13.6628 37.7263 13.3362 37.9132 13.054C37.992 12.9226 38.1366 12.6892 38.3469 12.3541C38.5572 12.0189 38.8036 11.6213 39.0862 11.1613C39.3688 10.7012 39.6549 10.2313 39.9444 9.75152C40.234 9.27175 40.5064 8.82152 40.7618 8.4009C41.0186 7.98072 41.3046 7.5141 41.6198 7.00103H46.6666L42.7629 13.3695C42.6421 13.5586 42.574 13.7765 42.5657 14.0007C42.5787 14.2361 42.6609 14.4625 42.8019 14.6514H42.8027Z" fill="white"/>
<path d="M60.6685 14.5033C60.3788 14.208 60.0426 13.9624 59.6732 13.7764C59.2861 13.5805 58.8833 13.4172 58.469 13.2882C58.0441 13.1555 57.6062 13.0426 57.1553 12.9497C56.8098 12.8703 56.488 12.7907 56.1899 12.7111C55.9159 12.6403 55.6493 12.5435 55.3937 12.422C55.174 12.3179 54.9697 12.1839 54.7866 12.0237C54.6143 11.8719 54.4812 11.6808 54.3985 11.4665C54.3065 11.2146 54.2626 10.9477 54.2691 10.6796C54.2645 10.4021 54.3082 10.1259 54.3985 9.86348C54.4799 9.63157 54.6165 9.423 54.7966 9.2558C54.983 9.08535 55.1943 8.94433 55.4233 8.83762C55.6857 8.71824 55.964 8.63775 56.2496 8.59866C56.5892 8.55053 56.9318 8.52735 57.2747 8.5293C57.5872 8.52974 57.8994 8.54625 58.2102 8.57875C58.5246 8.61158 58.8369 8.66154 59.1458 8.72843C59.4458 8.79328 59.7416 8.87641 60.0315 8.97734C60.303 9.07082 60.566 9.18729 60.8177 9.32549L61.0964 7.57346C60.8134 7.42568 60.5168 7.30564 60.2106 7.21503C59.8988 7.1221 59.5837 7.04233 59.2652 6.97574C58.9429 6.90908 58.6173 6.85934 58.2899 6.82672C57.9581 6.79353 57.6197 6.77683 57.2747 6.7766C56.5708 6.76889 55.8687 6.84916 55.1847 7.01556C54.6022 7.15609 54.0516 7.40625 53.5625 7.75268C53.1118 8.07626 52.7491 8.50739 52.5072 9.00688C52.2498 9.56846 52.124 10.1814 52.1393 10.7991C52.1282 11.2771 52.2057 11.7531 52.3679 12.2029C52.511 12.5798 52.7315 12.9225 53.0151 13.2089C53.2957 13.4892 53.618 13.7243 53.9706 13.9059C54.3442 14.0983 54.7337 14.2583 55.1346 14.3841C55.5531 14.5169 55.981 14.6297 56.4185 14.7226C56.7772 14.8021 57.109 14.885 57.4137 14.9715C57.6978 15.0498 57.9743 15.153 58.2401 15.2802C58.4684 15.388 58.6796 15.5289 58.8668 15.6984C59.0447 15.8654 59.184 16.0693 59.2751 16.2958C59.3807 16.5686 59.4314 16.8596 59.4244 17.152C59.4297 17.463 59.3826 17.7727 59.2851 18.068C59.1977 18.3235 59.0626 18.56 58.887 18.765C58.7103 18.9668 58.4933 19.1294 58.25 19.2423C57.975 19.3689 57.6835 19.4561 57.3842 19.5015C57.0187 19.5575 56.6493 19.5842 56.2795 19.5811C55.9201 19.5802 55.5611 19.5569 55.2046 19.5114C54.8326 19.465 54.4611 19.4019 54.09 19.3222C53.7189 19.2426 53.3572 19.1462 53.0049 19.0332C52.6534 18.921 52.3185 18.8049 52 18.685L52.2584 20.6564C52.5978 20.7832 52.9434 20.8928 53.2938 20.9847C53.6118 21.0682 53.9341 21.1346 54.2592 21.1838C54.5706 21.2303 54.8824 21.2668 55.1947 21.2933C55.507 21.3199 55.8221 21.3331 56.1402 21.3331C56.8526 21.3376 57.5635 21.2641 58.26 21.1141C58.8767 20.9848 59.464 20.7417 59.9917 20.3972C60.484 20.0712 60.8821 19.6214 61.1458 19.0929C61.4368 18.467 61.5767 17.7815 61.5542 17.0916C61.5651 16.5776 61.4875 16.0656 61.325 15.5779C61.1865 15.1762 60.9625 14.8098 60.6685 14.5033Z" fill="#9FDAF5"/>
<path d="M72.5813 19.8596C72.4358 19.873 72.2893 19.851 72.1541 19.7956C72.0189 19.7401 71.8992 19.6527 71.805 19.541C71.6205 19.222 71.5437 18.852 71.5861 18.4859L71.6259 14.3835C71.6303 13.9534 71.5767 13.5247 71.4667 13.109C71.37 12.7444 71.2081 12.4004 70.989 12.0934C70.7676 11.7933 70.4863 11.5424 70.1629 11.3567C69.7872 11.1433 69.3811 10.9889 68.9587 10.8987C68.4421 10.787 67.9147 10.7336 67.3862 10.7393C66.967 10.7392 66.5481 10.7658 66.1322 10.819C65.7393 10.8685 65.3502 10.945 64.9678 11.048C64.6132 11.1442 64.2643 11.2606 63.9228 11.3965L63.684 13.0891C64.0157 12.9696 64.331 12.8701 64.6298 12.7904C64.9286 12.7107 65.2171 12.6444 65.4953 12.5913C65.7683 12.5391 66.0441 12.5025 66.3213 12.4817C66.5931 12.4618 66.8618 12.4519 67.1275 12.4519C67.5333 12.4433 67.9385 12.4902 68.3317 12.5913C68.6186 12.663 68.8824 12.8069 69.098 13.0094C69.29 13.2064 69.4272 13.4501 69.4961 13.7164C69.581 14.0448 69.6212 14.3831 69.6155 14.7223L69.6132 15.2201L67.2867 15.3775C66.4909 15.3998 65.7069 15.5756 64.9778 15.8952C64.4322 16.1342 63.9611 16.516 63.6143 17.0004C63.3201 17.4315 63.1639 17.942 63.1664 18.464C63.1627 18.9538 63.2825 19.4367 63.5148 19.8679C63.7583 20.3108 64.1247 20.6739 64.5697 20.9133C65.1127 21.1959 65.7196 21.3331 66.3313 21.3116C66.9044 21.3248 67.4749 21.2302 68.0132 21.0328C68.4787 20.8507 68.9045 20.5803 69.2672 20.2363C69.4049 20.1041 69.5355 19.9649 69.6587 19.8191C69.6975 20.0253 69.7704 20.2236 69.8743 20.4059C70.0518 20.7106 70.3246 20.9485 70.6506 21.0829C71.011 21.2277 71.3968 21.2988 71.7851 21.292C71.9046 21.292 72.0207 21.2884 72.1335 21.2817C72.2442 21.2754 72.3542 21.2587 72.4619 21.2319C72.5681 21.2054 72.6639 21.1822 72.7505 21.1622C72.8285 21.1448 72.905 21.1215 72.9794 21.0925L73.1984 19.7584C73.0885 19.7962 72.9751 19.823 72.86 19.8383C72.7676 19.8506 72.6745 19.8571 72.5813 19.8579M69.2672 18.9618C69.0515 19.1326 68.8179 19.2794 68.5705 19.3999C68.3243 19.5197 68.0634 19.6068 67.7946 19.6591C67.5157 19.7127 67.2323 19.7393 66.9483 19.7384C66.6239 19.7477 66.3014 19.6866 66.0029 19.5592C65.76 19.4539 65.5552 19.2768 65.4157 19.0518C65.2778 18.8129 65.2089 18.5405 65.2166 18.2649C65.1974 17.9329 65.2884 17.6039 65.4754 17.3289C65.6921 17.0759 65.9857 16.901 66.3114 16.8311C66.82 16.7115 67.342 16.6581 67.8643 16.6721H69.6069L69.598 18.6482C69.4966 18.7621 69.3856 18.867 69.2662 18.9618" fill="#9FDAF5"/>
<path d="M70.5309 6H68.3812L66.6893 9.56446H68.2418L70.5309 6Z" fill="#9FDAF5"/>
<path d="M88.8424 11.1575C88.2997 10.8627 87.6881 10.7183 87.0709 10.7393C86.5352 10.7379 86.0032 10.8288 85.4984 11.0082C84.9858 11.1919 84.503 11.4502 84.0656 11.7748C83.8174 11.9585 83.5814 12.158 83.359 12.3722C83.155 11.8737 82.7953 11.4545 82.3336 11.1774C81.7843 10.8811 81.1658 10.7367 80.5422 10.7592C80.01 10.7595 79.4817 10.8504 78.98 11.0281C78.4649 11.2093 77.9787 11.4642 77.5366 11.7848C77.3936 11.888 77.2549 11.9998 77.1186 12.1167V10.7592L75.0883 11.0579V21.1141H77.1186V13.5398C77.3578 13.3831 77.6071 13.2425 77.865 13.119C78.1808 12.9697 78.5109 12.853 78.8503 12.7705C79.163 12.6932 79.4839 12.6531 79.806 12.651C80.1016 12.6421 80.396 12.6929 80.6715 12.8003C80.8997 12.8971 81.1012 13.0473 81.2591 13.2384C81.4318 13.4605 81.5509 13.7194 81.6071 13.9951C81.6848 14.3515 81.7216 14.7157 81.7169 15.0804V21.1141H83.7471V14.6622C83.7484 14.2813 83.7226 13.9008 83.6702 13.5235C83.9003 13.3722 84.1386 13.2338 84.3841 13.109C84.6943 12.9527 85.0215 12.8324 85.3591 12.7506C85.6783 12.6724 86.0057 12.6323 86.3344 12.6311C86.6269 12.624 86.9178 12.6748 87.1906 12.7804C87.4227 12.8751 87.6278 13.0256 87.7878 13.2185C87.9608 13.4404 88.0801 13.6994 88.1361 13.9752C88.2137 14.3316 88.2504 14.6958 88.2456 15.0605V21.1141H90.2758V14.6423C90.3014 13.8892 90.1797 13.1384 89.9176 12.432C89.7111 11.8993 89.3325 11.4507 88.8424 11.1575Z" fill="#9FDAF5"/>
<path d="M93.2821 21.1144H95.3124V10.7596L93.2821 11.0583V21.1144Z" fill="#9FDAF5"/>
<path d="M95.0228 6.58744C94.8163 6.46116 94.5784 6.3956 94.3364 6.39826C94.0912 6.39638 93.8503 6.46181 93.6397 6.58744C93.4322 6.70898 93.2579 6.88001 93.1325 7.08527C93.006 7.29188 92.9403 7.53001 92.9431 7.77227C92.9427 8.01537 93.0071 8.25416 93.1295 8.46414C93.252 8.67412 93.4281 8.8477 93.6397 8.96707C93.8523 9.08661 94.0925 9.14839 94.3364 9.14628C94.5771 9.14916 94.8142 9.08726 95.0228 8.96707C95.2276 8.84855 95.3963 8.67645 95.5108 8.46924C95.6302 8.25651 95.6919 8.01625 95.6899 7.77227C95.6926 7.53137 95.6308 7.29414 95.5108 7.08527C95.3924 6.88102 95.2246 6.70983 95.0228 6.58744Z" fill="#9FDAF5"/>
<path d="M107.274 10.8887C106.901 10.9885 106.546 11.1428 106.219 11.3467C105.879 11.5587 105.565 11.8093 105.283 12.0934C105.236 12.1406 105.191 12.193 105.144 12.2425V10.7593L103.114 11.058V21.1141H105.144V13.5909C105.298 13.4847 105.454 13.3851 105.612 13.2982C105.811 13.1884 106.017 13.092 106.229 13.0095C106.434 12.9298 106.643 12.8601 106.856 12.8004C107.074 12.7396 107.297 12.6963 107.523 12.6709C107.764 12.6444 108.007 12.6378 108.249 12.651L108.488 10.7792C108.08 10.7499 107.67 10.7868 107.274 10.8887Z" fill="#9FDAF5"/>
<path d="M118.699 19.8596C118.554 19.873 118.407 19.851 118.272 19.7956C118.137 19.7401 118.017 19.6527 117.923 19.541C117.738 19.222 117.662 18.852 117.704 18.4859L117.744 14.3835C117.748 13.9534 117.695 13.5247 117.585 13.109C117.488 12.7444 117.326 12.4004 117.107 12.0934C116.886 11.7933 116.604 11.5424 116.281 11.3567C115.905 11.1433 115.499 10.9889 115.077 10.8987C114.56 10.787 114.033 10.7336 113.504 10.7393C113.085 10.7392 112.666 10.7658 112.25 10.819C111.857 10.8685 111.468 10.945 111.086 11.048C110.731 11.1442 110.382 11.2606 110.041 11.3965L109.802 13.0891C110.134 12.9696 110.449 12.8701 110.748 12.7904C111.047 12.7107 111.335 12.6444 111.613 12.5913C111.886 12.5391 112.162 12.5025 112.439 12.4817C112.711 12.4618 112.98 12.4519 113.245 12.4519C113.651 12.4433 114.056 12.4902 114.45 12.5913C114.737 12.663 115 12.8069 115.216 13.0094C115.408 13.2064 115.545 13.45 115.614 13.7164C115.699 14.0448 115.739 14.3831 115.734 14.7223L115.731 15.2201L113.405 15.3775C112.609 15.3998 111.825 15.5756 111.096 15.8952C110.55 16.1342 110.079 16.516 109.732 17.0004C109.438 17.4315 109.282 17.942 109.284 18.464C109.281 18.9538 109.4 19.4367 109.633 19.8679C109.876 20.3108 110.243 20.6739 110.688 20.9133C111.231 21.1959 111.838 21.3331 112.449 21.3116C113.022 21.3248 113.593 21.2302 114.131 21.0328C114.597 20.8507 115.022 20.5803 115.385 20.2363C115.523 20.1042 115.654 19.9649 115.777 19.8191C115.815 20.0253 115.888 20.2236 115.992 20.4059C116.17 20.7106 116.443 20.9485 116.769 21.0829C117.129 21.2277 117.515 21.2988 117.903 21.292C118.023 21.292 118.139 21.2884 118.251 21.2817C118.362 21.2754 118.472 21.2587 118.58 21.2319C118.686 21.2054 118.782 21.1822 118.868 21.1622C118.946 21.1448 119.023 21.1215 119.097 21.0925L119.316 19.7584C119.206 19.7962 119.093 19.823 118.978 19.8383C118.886 19.8506 118.792 19.8571 118.699 19.8579M115.385 18.9618C115.169 19.1326 114.936 19.2794 114.689 19.3999C114.442 19.5197 114.181 19.6068 113.913 19.6591C113.634 19.7127 113.35 19.7393 113.066 19.7384C112.742 19.7477 112.419 19.6866 112.121 19.5592C111.878 19.4539 111.673 19.2768 111.534 19.0518C111.396 18.8129 111.327 18.5405 111.335 18.2649C111.315 17.9329 111.406 17.6039 111.593 17.3289C111.81 17.0759 112.104 16.901 112.429 16.8311C112.938 16.7115 113.46 16.6581 113.982 16.6721H115.725L115.716 18.6482C115.615 18.7621 115.504 18.867 115.384 18.9618" fill="#9FDAF5"/>
<path d="M128.115 11.2229C128.095 11.2149 128.076 11.2053 128.055 11.1977C127.683 11.0572 127.301 10.9472 126.911 10.8688C126.455 10.7792 125.992 10.7359 125.528 10.7397C124.643 10.7329 123.774 10.9675 123.013 11.4184C122.251 11.8693 121.628 12.5193 121.209 13.2985C120.719 14.2337 120.479 15.2796 120.512 16.3349C120.489 17.2461 120.669 18.1509 121.039 18.9837C121.362 19.6948 121.889 20.2941 122.552 20.7059C123.266 21.126 124.083 21.3365 124.911 21.3132C125.419 21.3161 125.924 21.2491 126.414 21.1141C126.901 20.9738 127.367 20.7661 127.797 20.4968C127.946 20.4045 128.096 20.3016 128.244 20.1935L128.494 21.1141H130.146V6.09956L128.115 6.37835L128.115 11.2229ZM127.05 19.4119C126.596 19.5905 126.115 19.6882 125.627 19.7006C125.058 19.7172 124.495 19.5831 123.995 19.312C123.529 19.0368 123.166 18.6174 122.96 18.1172C122.702 17.4756 122.58 16.7873 122.602 16.096C122.578 15.3877 122.714 14.6833 123 14.0346C123.243 13.5084 123.642 13.0703 124.144 12.7804C124.69 12.4829 125.304 12.3351 125.926 12.352C126.245 12.3513 126.565 12.3746 126.881 12.4217C127.195 12.4703 127.504 12.5436 127.807 12.641C127.904 12.6719 128.011 12.7131 128.115 12.7509V18.8885C127.777 19.0948 127.42 19.2699 127.05 19.4119Z" fill="#9FDAF5"/>
<path d="M134.991 6.58744C134.784 6.46116 134.546 6.3956 134.304 6.39826C134.059 6.39638 133.818 6.46181 133.608 6.58744C133.4 6.70897 133.226 6.88 133.101 7.08527C132.974 7.29188 132.908 7.53001 132.911 7.77227C132.911 8.01537 132.975 8.25416 133.098 8.46414C133.22 8.67412 133.396 8.8477 133.608 8.96707C133.82 9.08661 134.061 9.14839 134.304 9.14628C134.545 9.14916 134.782 9.08726 134.991 8.96707C135.196 8.84855 135.364 8.67645 135.479 8.46924C135.598 8.25651 135.66 8.01625 135.658 7.77227C135.661 7.53137 135.599 7.29414 135.479 7.08527C135.36 6.88102 135.193 6.70983 134.991 6.58744Z" fill="#9FDAF5"/>
<path d="M133.249 21.1144H135.279V10.7596L133.249 11.0583V21.1144Z" fill="#9FDAF5"/>
<path d="M147.381 13.1787C146.985 12.4172 146.372 11.7902 145.62 11.3766C144.779 10.9542 143.851 10.7359 142.91 10.7394C141.97 10.7428 141.043 10.9679 140.206 11.3965C139.437 11.8271 138.808 12.47 138.394 13.2484C137.945 14.1217 137.723 15.0942 137.748 16.0761C137.722 17.0503 137.93 18.0164 138.354 18.8938C138.736 19.6596 139.344 20.2889 140.096 20.6959C140.906 21.1205 141.81 21.3329 142.724 21.3132C143.68 21.3323 144.626 21.1061 145.471 20.6561C146.259 20.2257 146.906 19.5754 147.332 18.7843C147.794 17.9006 148.023 16.9137 147.998 15.9168C148.021 14.9672 147.809 14.0268 147.381 13.1787ZM145.5 18.0475C145.277 18.5651 144.898 19.0002 144.416 19.2921C143.931 19.5693 143.381 19.7104 142.823 19.7003C142.276 19.7139 141.737 19.5686 141.271 19.2821C140.81 18.9754 140.449 18.5388 140.236 18.0276C139.965 17.3717 139.837 16.6658 139.859 15.9566C139.835 15.2665 139.965 14.5797 140.237 13.9454C140.46 13.4467 140.832 13.0294 141.302 12.7506C141.804 12.4739 142.371 12.3364 142.944 12.3523C143.392 12.3412 143.836 12.4261 144.248 12.6012C144.609 12.7641 144.923 13.0138 145.164 13.3281C145.42 13.6696 145.606 14.0588 145.711 14.4731C145.835 14.9576 145.896 15.4564 145.89 15.9566C145.913 16.6735 145.781 17.3868 145.502 18.0475" fill="#9FDAF5"/>
</svg>

<svg xmlns="http://www.w3.org/2000/svg" viewBox="0 0 155 28"><path fill="#114F9D" d="M0 0h154.667v28H0z"/><path fill="#fff" d="M6.667 21V7.001h4.593v14H6.667ZM17.509 9.23 20.151 21h-5.027L11.97 7.001h2.82a2.655 2.655 0 0 1 1.764.641c.49.404.828.964.955 1.587ZM20.841 21V7.001h4.593v14h-4.593Zm8.063-8.675a2.738 2.738 0 0 1-1.41-.375 2.777 2.777 0 0 1-1.015-1.015 2.735 2.735 0 0 1-.375-1.41 2.686 2.686 0 0 1 .375-1.4 2.812 2.812 0 0 1 3.825-1.005c.415.244.76.59 1.005 1.005.25.424.38.908.375 1.4.004.495-.125.982-.375 1.41a2.8 2.8 0 0 1-1.006 1.015c-.423.251-.908.38-1.4.375ZM32.394 21V7.001h4.593v14h-4.593Zm10.409-6.349c.013.014.111.175.295.483.185.309.424.703.72 1.183a373.133 373.133 0 0 1 1.863 3.056c.288.48.617 1.023.986 1.627H41.62a712.71 712.71 0 0 0-.858-1.39 127.3 127.3 0 0 1-.818-1.34c-.289-.48-.575-.947-.858-1.4a71.117 71.117 0 0 1-.729-1.193 20.869 20.869 0 0 0-.424-.69 2.039 2.039 0 0 1-.335-.986c.02-.338.128-.665.315-.947.079-.131.224-.365.434-.7a209.23 209.23 0 0 0 1.598-2.603c.289-.48.561-.93.817-1.35L41.62 7h5.047l-3.904 6.369c-.12.189-.189.407-.197.63.013.236.095.463.236.651Z"/><path fill="#9FDAF5" d="M60.669 14.503a3.768 3.768 0 0 0-.996-.727 7.807 7.807 0 0 0-1.204-.488 13.631 13.631 0 0 0-1.314-.338c-.345-.08-.667-.16-.965-.239a4.444 4.444 0 0 1-.796-.289 2.636 2.636 0 0 1-.607-.398 1.427 1.427 0 0 1-.389-.557 2.142 2.142 0 0 1-.129-.787c-.005-.278.04-.554.13-.817.08-.231.218-.44.398-.607.186-.17.397-.312.626-.418.263-.12.541-.2.827-.24a7.02 7.02 0 0 1 1.025-.069 9.118 9.118 0 0 1 1.87.2c.3.064.597.147.886.248.272.094.535.21.787.348l.278-1.752a4.945 4.945 0 0 0-.885-.358 11.67 11.67 0 0 0-.946-.24 9.433 9.433 0 0 0-.975-.148c-.332-.033-.67-.05-1.015-.05a8.45 8.45 0 0 0-2.09.239c-.583.14-1.133.39-1.623.737-.45.323-.813.754-1.055 1.254a4.06 4.06 0 0 0-.368 1.792c-.01.478.067.954.229 1.404.143.377.363.72.647 1.006.28.28.603.515.956.697.373.192.763.352 1.164.478.418.133.846.246 1.284.339.358.08.69.162.995.248.284.079.56.182.826.31.228.107.44.248.627.417.178.167.317.371.408.598.106.273.156.564.15.856.005.311-.042.62-.14.916a2.132 2.132 0 0 1-.398.697 1.922 1.922 0 0 1-.637.477 3.228 3.228 0 0 1-.866.26 6.912 6.912 0 0 1-1.105.08c-.359-.002-.718-.025-1.074-.07-.372-.047-.744-.11-1.115-.19s-.733-.176-1.085-.289A20.848 20.848 0 0 1 52 18.685l.258 1.971c.34.127.685.237 1.036.329.318.083.64.15.965.199.312.046.623.083.936.11.312.026.627.04.945.04a9.776 9.776 0 0 0 2.12-.22 5.072 5.072 0 0 0 1.732-.717c.492-.326.89-.776 1.154-1.304.29-.626.43-1.311.408-2.001a4.488 4.488 0 0 0-.229-1.514 2.933 2.933 0 0 0-.657-1.075ZM72.581 19.86a.907.907 0 0 1-.776-.319 1.714 1.714 0 0 1-.219-1.055l.04-4.103a4.79 4.79 0 0 0-.16-1.274 3.13 3.13 0 0 0-.477-1.016 2.693 2.693 0 0 0-.826-.736 4.224 4.224 0 0 0-1.204-.458 7.079 7.079 0 0 0-1.573-.16c-.419 0-.838.027-1.254.08a8.62 8.62 0 0 0-1.164.229 9.683 9.683 0 0 0-1.045.348l-.239 1.693a11.686 11.686 0 0 1 1.811-.498c.273-.052.55-.088.826-.11.272-.02.54-.03.806-.03.406-.008.812.04 1.205.14.287.072.55.216.766.418.192.197.33.441.398.707.085.329.125.667.12 1.006l-.003.498-2.326.157a6.183 6.183 0 0 0-2.31.518A3.31 3.31 0 0 0 63.615 17c-.294.431-.45.942-.448 1.464-.003.49.117.973.349 1.404.243.443.61.806 1.055 1.045.543.283 1.15.42 1.761.399a4.579 4.579 0 0 0 1.682-.28 3.872 3.872 0 0 0 1.254-.796c.138-.132.269-.271.392-.417.038.206.111.405.215.587.178.305.45.543.777.677.36.145.746.216 1.134.209.12 0 .236-.004.349-.01.11-.007.22-.023.328-.05.106-.027.202-.05.288-.07.079-.017.155-.04.23-.07l.218-1.334a1.75 1.75 0 0 1-.338.08 2.26 2.26 0 0 1-.279.02m-3.314-.896c-.215.17-.45.317-.697.438-.246.12-.507.207-.775.26a4.41 4.41 0 0 1-.847.078 2.244 2.244 0 0 1-.945-.179 1.299 1.299 0 0 1-.587-.507 1.49 1.49 0 0 1-.2-.787 1.51 1.51 0 0 1 .26-.936 1.52 1.52 0 0 1 .835-.498 6.073 6.073 0 0 1 1.553-.159h1.743l-.009 1.976a2.652 2.652 0 0 1-.332.314M70.53 6h-2.149L66.69 9.564h1.553L70.53 6ZM88.842 11.158a3.464 3.464 0 0 0-1.771-.419 4.66 4.66 0 0 0-1.573.27 5.541 5.541 0 0 0-1.432.766 7.151 7.151 0 0 0-.707.597 2.496 2.496 0 0 0-1.025-1.195 3.507 3.507 0 0 0-1.792-.418c-.532 0-1.06.091-1.562.27a5.656 5.656 0 0 0-1.861 1.088v-1.358l-2.03.299v10.056h2.03V13.54a6.43 6.43 0 0 1 .746-.421c.316-.15.646-.266.985-.348.313-.078.634-.118.956-.12a2.2 2.2 0 0 1 .865.15c.229.096.43.246.588.437.173.223.292.481.348.757.078.357.115.72.11 1.085v6.034h2.03v-6.452a8.077 8.077 0 0 0-.077-1.139c.23-.15.469-.29.714-.414.31-.156.638-.277.975-.358.32-.079.647-.119.975-.12.293-.007.584.044.857.15.232.094.437.245.597.438.173.221.292.48.348.756.078.357.114.72.11 1.085v6.054h2.03v-6.472a5.789 5.789 0 0 0-.358-2.21 2.566 2.566 0 0 0-1.076-1.274ZM93.282 21.114h2.03V10.76l-2.03.298v10.056ZM95.023 6.587a1.289 1.289 0 0 0-.687-.189 1.34 1.34 0 0 0-.696.19 1.458 1.458 0 0 0-.508.497 1.287 1.287 0 0 0-.189.687 1.37 1.37 0 0 0 .697 1.195c.212.12.453.181.696.18.241.002.478-.06.687-.18.205-.118.373-.29.488-.498a1.4 1.4 0 0 0 .179-.697c.003-.24-.06-.478-.18-.687a1.408 1.408 0 0 0-.487-.498ZM107.274 10.889c-.373.1-.728.254-1.055.458-.34.212-.654.462-.936.746-.047.048-.092.1-.139.15v-1.484l-2.03.299v10.056h2.03v-7.523a5.121 5.121 0 0 1 1.085-.581c.205-.08.414-.15.627-.21a4.249 4.249 0 0 1 1.393-.149l.239-1.872a3.784 3.784 0 0 0-1.214.11ZM118.699 19.86a.907.907 0 0 1-.776-.319 1.713 1.713 0 0 1-.219-1.055l.04-4.103a4.807 4.807 0 0 0-.159-1.274 3.138 3.138 0 0 0-.478-1.016 2.693 2.693 0 0 0-.826-.736 4.23 4.23 0 0 0-1.204-.458 7.083 7.083 0 0 0-1.573-.16c-.419 0-.838.027-1.254.08a8.6 8.6 0 0 0-1.164.229 9.618 9.618 0 0 0-1.045.348l-.239 1.693a11.702 11.702 0 0 1 1.811-.498c.273-.052.549-.088.826-.11.272-.02.541-.03.806-.03.406-.008.811.04 1.205.14.287.072.55.216.766.418.192.197.329.441.398.707.085.329.125.667.12 1.006l-.003.498-2.326.157a6.182 6.182 0 0 0-2.309.518A3.31 3.31 0 0 0 109.732 17a2.58 2.58 0 0 0-.448 1.464c-.003.49.116.973.349 1.404.243.443.61.806 1.055 1.045.543.283 1.15.42 1.761.399a4.579 4.579 0 0 0 1.682-.28 3.87 3.87 0 0 0 1.254-.796c.138-.132.269-.271.392-.417.038.206.111.405.215.587.178.305.451.543.777.677.36.145.746.216 1.134.209.12 0 .236-.004.348-.01.111-.007.221-.023.329-.05.106-.027.202-.05.288-.07a1.56 1.56 0 0 0 .229-.07l.219-1.334c-.11.038-.223.065-.338.08a2.261 2.261 0 0 1-.279.02m-3.314-.896c-.216.17-.449.317-.696.438a3.17 3.17 0 0 1-.776.26c-.279.053-.563.08-.847.078a2.242 2.242 0 0 1-.945-.179 1.295 1.295 0 0 1-.587-.507 1.487 1.487 0 0 1-.199-.787c-.02-.332.071-.661.258-.936.217-.253.511-.428.836-.498a6.077 6.077 0 0 1 1.553-.159h1.743l-.009 1.976a2.586 2.586 0 0 1-.332.314M128.115 11.223c-.02-.008-.039-.018-.06-.025a6.878 6.878 0 0 0-2.527-.458 4.859 4.859 0 0 0-4.319 2.559 6.13 6.13 0 0 0-.697 3.036 6.142 6.142 0 0 0 .527 2.649c.323.71.85 1.31 1.513 1.722.714.42 1.531.63 2.359.607a5.536 5.536 0 0 0 1.503-.199c.487-.14.953-.348 1.383-.617.149-.093.299-.195.447-.303l.25.92h1.652V6.1l-2.031.278v4.845Zm-1.065 8.189a4.174 4.174 0 0 1-1.423.289 3.226 3.226 0 0 1-1.632-.389 2.487 2.487 0 0 1-1.035-1.195 4.992 4.992 0 0 1-.358-2.021 4.713 4.713 0 0 1 .398-2.061 2.806 2.806 0 0 1 1.144-1.255 3.522 3.522 0 0 1 1.782-.428 6.044 6.044 0 0 1 1.881.289c.097.03.204.072.308.11v6.138a6.549 6.549 0 0 1-1.065.523ZM134.991 6.587a1.292 1.292 0 0 0-.687-.189 1.336 1.336 0 0 0-.696.19 1.45 1.45 0 0 0-.507.497 1.282 1.282 0 0 0-.19.687 1.368 1.368 0 0 0 .697 1.195c.212.12.453.181.696.18.241.002.478-.06.687-.18.205-.118.373-.29.488-.498.119-.212.181-.453.179-.697a1.346 1.346 0 0 0-.179-.687 1.411 1.411 0 0 0-.488-.498ZM133.249 21.114h2.03V10.76l-2.03.298v10.056ZM147.381 13.179a4.345 4.345 0 0 0-1.761-1.802 5.987 5.987 0 0 0-5.414.02 4.596 4.596 0 0 0-1.812 1.851 5.858 5.858 0 0 0-.646 2.828c-.026.974.182 1.94.606 2.818a4.16 4.16 0 0 0 1.742 1.802c.81.424 1.714.637 2.628.617a5.607 5.607 0 0 0 2.747-.657 4.64 4.64 0 0 0 1.861-1.872c.462-.883.691-1.87.666-2.867a5.767 5.767 0 0 0-.617-2.738Zm-1.881 4.868a2.708 2.708 0 0 1-1.084 1.245 3.097 3.097 0 0 1-1.593.408 2.829 2.829 0 0 1-1.552-.418 2.803 2.803 0 0 1-1.035-1.254 5.016 5.016 0 0 1-.377-2.071 4.69 4.69 0 0 1 .378-2.012 2.644 2.644 0 0 1 1.065-1.194 3.217 3.217 0 0 1 1.642-.399c.448-.01.892.074 1.304.25.361.162.675.412.916.726.256.342.442.73.547 1.145.124.485.185.983.179 1.484a4.965 4.965 0 0 1-.388 2.09"/></svg>
